X: 9739
T: Delaney's
R: jig
M: 6/8
K: Emixolydian
BcB EFE|BAF Bcd|AFF dFF|AFF EFA|
BcB EFE|BAF Bcd|AFF dFF|EFE E3:|
Bed Bcd|fed edB|AFF dFF|AFF EFA|
Bed Bcd|fed edB|AFF dFF|EFE E3:|

